!!!COM: Haydn, Franz Joseph
!!!OTL: String Quartet in E Major
!!!OPS: Opus 17
!!!ONM: No. 1
!!!OMD: Adagio
!!!OMV: 3
!!!SCT: H III:25
!!!SCA: Thematisch-bibliographisches Werkevererzeichnis (A. van Hoboken)
!!!YOR: Trautwein Edition
!!!EED: Frances Bennion
!!!ENC: Frances Bennion
!!!CDT: 1732/3/31/-1809/5/31/
!!!CNT: Oesterreich
!!!YEC: Copyright (c) 1994, 2000 Center for Computer Assisted Research in the Humanities
!!!YEM: Rights to all derivative editions reserved.
!!!YEM: Refer to licensing agreement for further details.
!!!YEN: United States of America
**kern	**kern	**kern	**kern
*k[f#]	*k[f#]	*k[f#]	*k[f#]
*e:	*e:	*e:	*e:
*clefF4	*clefC3	*clefG	*clefG
*M6/8	*M6/8	*M6/8	*M6/8
*MM60	*MM60	*MM60	*MM60
=1	=1	=1	=1
4E	4G	4B	4.ee
8E	8G	8B	.
4E	4G	4B	4b
8E	8G	8B	32a
.	.	.	32g
.	.	.	32f#
.	.	.	32e
=2	=2	=2	=2
4F#	4A	4B	8.d#
.	.	.	16e
8F#	8A	8B	8d#
8F#	8A	8B	8d#
4r	4r	4r	4r
=3	=3	=3	=3
4D#	4F#	4B	4.ff#
8D#	8F#	8B	.
4D#	4F#	4B	8B
.	.	.	8a
8D#	8F#	8B	16g
.	.	.	16f#
=4	=4	=4	=4
4E	4E	4B	8.g
.	.	.	16a
8E	8e	8g	8b
4E	4g	8.g	8.b
.	.	16a	16cc
8D	8f#	8b	8b
=5	=5	=5	=5
4C	8.e	4.b	[2ee
.	16f#	.	.
8C	8g	.	.
4C	8.g	4.a#	.
.	.	.	16ee]
.	16f#	.	16dd#
8C	8e	.	8ee
=6	=6	=6	=6
4BB	4f#	[2.b	8.dd#
.	.	.	16ee
8BB	8d#	.	8ff#
4BB	4d#	.	4.b
8D#	8f#	.	.
=7	=7	=7	=7
4E	8.g	8.b]	[2cc
.	16a	16cc	.
8E	8g	8b	.
4F#	[4.f#	[4.a	.
.	.	.	16cc]
.	.	.	16aa
8E	.	.	8cc
=8	=8	=8	=8
4D#	8.f#]	8.a]	[2b
.	16g	16b	.
8D#	8f#	8a	.
4E	4e	4g	.
.	.	.	16b]
.	.	.	16ee
8GG	8G	8B	8e
=9	=9	=9	=9
4AA	4A	4c	8.f
.	.	.	16g
8AA	8A	8c	8f
4AA	4A	4c	8cc
.	.	.	8a
8AA	8A	8c	8f
=10	=10	=10	=10
4BB	4G	4B	8.e
.	.	.	16f#
8BB	8F#	8A	8d#
8E	8E	8G	8e
4r	4r	4r	4r
=11	=11	=11	=11
4g	4a	4cc	16r
.	.	.	16aa
.	.	.	16ccc
.	.	.	16aa
8g	8a	8cc	16ee
.	.	.	16ccc
4f#	4a	4cc	16dd
.	.	.	16ddd
.	.	.	16aa
.	.	.	16ff#
8f#	8a	8cc	16dd
.	.	.	16ddd
=12	=12	=12	=12
4f#	4g	4b	16r
.	.	.	16gg
.	.	.	16bb
.	.	.	16gg
8f#	8g	8b	16dd
.	.	.	16bb
4e	4g	4b	16cc
.	.	.	16ccc
.	.	.	16gg
.	.	.	16ee
8e	8g	8b	16cc
.	.	.	16ccc
=13	=13	=13	=13
4e	4f#	4a	16r
.	.	.	16ff#
.	.	.	16aa
.	.	.	16ff#
8e	8f#	8a	16cc
.	.	.	16aa
4d#	4f#	4a	16b
.	.	.	16bb
.	.	.	16ff#
.	.	.	16dd#
8d#	8f#	8a	16b
.	.	.	16bb
=14	=14	=14	=14
4e	4B	4g	16r
.	.	.	16ee
.	.	.	16gg
.	.	.	16ee
2r	2r	2r	16b
.	.	.	16ee
.	.	.	16g
.	.	.	16b
.	.	.	16e
.	.	.	16g
.	.	.	16B
.	.	.	16e
=15	=15	=15	=15
2.AA	[2c	[2f	16r
.	.	.	16ff
.	.	.	16aa
.	.	.	16ff
.	.	.	16cc
.	.	.	16ff
.	.	.	16a
.	.	.	16cc
.	8c]	8f]	16f
.	.	.	16a
.	8A	8c	16c
.	.	.	16f
=16	=16	=16	=16
4BB	8.G	4B	8.e
.	16A	.	16f#
8BB	8F#	8A	8d#
8E	8E	8G	8e
4r	4r	4r	4r
=17	=17	=17	=17
4E	4G	4B	4.ee
8E	8G	8B	.
4E	4G	4B	4b
8E	8G	8c	32a
.	.	.	32g
.	.	.	32f#
.	.	.	32e
=18	=18	=18	=18
4F#	4A	4c	8.d
.	.	.	16e
8F#	8A	8c	8d
8F#	8A	8c	8d
4r	4r	4r	4r
=19	=19	=19	=19
4G	4r	24r	4dd
.	.	24d	.
.	.	24g	.
.	.	24b	.
.	.	24g	.
.	.	24d	.
8r	8g	24r	32cc
.	.	.	32b
.	.	24d	.
.	.	.	32a
.	.	24dd	.
.	.	.	32g
4F#	4r	24r	8.cc
.	.	24d	.
.	.	24a	.
.	.	24cc	.
.	.	24a	.
.	.	.	16dd
.	.	24d	.
8r	8f#	24r	8cc
.	.	24d	.
.	.	24cc	.
=20	=20	=20	=20
4G	8r	24r	8.b
.	.	24d	.
.	.	24g	.
.	8r	24b	.
.	.	24g	.
.	.	.	16cc
.	.	24d	.
8r	8g	24r	8b
.	.	24d	.
.	.	24b	.
4c	4r	24r	8.a
.	.	24d	.
.	.	24f#	.
.	.	24a	.
.	.	24f#	.
.	.	.	16b
.	.	24d	.
8r	8c	24r	8a
.	.	24d	.
.	.	24a	.
=21	=21	=21	=21
4B	4r	24r	4dd
.	.	24d	.
.	.	24g	.
.	.	24b	.
.	.	24g	.
.	.	24d	.
8r	8g	24r	24gg
.	.	24d	24dd
.	.	24b	24b
4F#	4r	24r	16dd
.	.	24d	.
.	.	.	16cc
.	.	24a	.
.	.	24cc	8r
.	.	24a	.
.	.	24d	.
8r	8f#	24r	24aa
.	.	24d	24ff#
.	.	24cc	24cc
=22	=22	=22	=22
4G	4r	24r	16cc
.	.	24d	.
.	.	.	16b
.	.	24g	.
.	.	24b	8r
.	.	24g	.
.	.	24d	.
8r	8g	24r	24dd
.	.	24d	24b
.	.	24b	24g
4c	4r	24r	16g
.	.	24d	.
.	.	.	16f#
.	.	24f#	.
.	.	24a	8r
.	.	24f#	.
.	.	24d	.
8r	8c	24r	24a
.	.	24d	24f#
.	.	24a	24d
=23	=23	=23	=23
4B	4r	24r	8.dd
.	.	24d	.
.	.	24g	.
.	.	24b	.
.	.	24g	.
.	.	.	16ee
.	.	24d	.
8r	8B	24r	8dd
.	.	24d	.
.	.	24b	.
4B	4r	24r	4gg
.	.	24d	.
.	.	24g	.
.	.	24dd	.
.	.	24g	.
.	.	24d	.
8r	8B	24r	8ff
.	.	24d	.
.	.	24dd	.
=24	=24	=24	=24
4c	4r	24r	8.ee
.	.	24e	.
.	.	24g	.
.	.	24b	.
.	.	24g	.
.	.	.	16ff#
.	.	24e	.
8r	8c	24r	8ee
.	.	24e	.
.	.	24b	.
4F#	4r	24r	4aa
.	.	24e	.
.	.	24a	.
.	.	24ee	.
.	.	24a	.
.	.	24e	.
8r	8f#	24r	8cc
.	.	24e	.
.	.	24ee	.
=25	=25	=25	=25
4B	4r	24r	8.dd
.	.	24d	.
.	.	24f#	.
.	.	24a	.
.	.	24f#	.
.	.	.	16ee
.	.	24d	.
8r	8B	24r	8dd
.	.	24d	.
.	.	24a	.
4E	4r	24r	4gg
.	.	24d	.
.	.	24g	.
.	.	24dd	.
.	.	24g	.
.	.	24d	.
8r	8e	24r	8b
.	.	24d	.
.	.	24dd	.
=26	=26	=26	=26
4A	4r	24r	8.cc
.	.	24c	.
.	.	24e	.
.	.	24g	.
.	.	24e	.
.	.	.	16dd
.	.	24c	.
8r	8A	24r	8cc
.	.	24c	.
.	.	24e	.
4D	4r	24r	4aa
.	.	24c	.
.	.	24f#	.
.	.	24a	.
.	.	24f#	.
.	.	24c	.
8r	8d	24r	8cc
.	.	24A	.
.	.	24f#	.
=27	=27	=27	=27
4G	4r	24r	8.b
.	.	24B	.
.	.	24d	.
.	.	24g	.
.	.	24d	.
.	.	.	16cc
.	.	24B	.
8r	8g	24r	8b
.	.	24B	.
.	.	24g	.
4E	4r	24r	4gg
.	.	24c#	.
.	.	24e	.
.	.	24g	.
.	.	24e	.
.	.	24c#	.
8A	8g	24r	8cc#
.	.	24e	.
.	.	24g	.
=28	=28	=28	=28
4D	4f#	24r	4dd
.	.	24A	.
.	.	24d	.
.	.	24f#	.
.	.	24d	.
.	.	24A	.
8d	8f#	24r	8ff#
.	.	24A	.
.	.	24f#	.
8D	8f#	8A	8dd
8r	4r	4r	4r
32D	.	.	.
32C	.	.	.
32BB	.	.	.
32AA	.	.	.
=29	=29	=29	=29
4GG	4d	4B	4.gg
8G	8d	8B	.
4G	4d	4B	4dd
8G	8d	8B	32cc
.	.	.	32b
.	.	.	32a
.	.	.	32g
=30	=30	=30	=30
4A	4d	4c	8.f#
.	.	.	16g
8A	8d	8c	8f#
4F#	4d	4a	4cc
8G	8g	8b	8b
=31	=31	=31	=31
4C	8.g#	8.b	[2ee
.	16a	16cc	.
8C	8g#	8b	.
4C	4a	8.cc	.
.	.	.	16ee]
.	.	16b	16dd
8C	8e	8a	8cc
=32	=32	=32	=32
4D	4d	8.g	8.b
.	.	16a	16cc
8D	8c	8f#	8a
8G	8B	8g	8g
4r	4r	4r	4r
=33	=33	=33	=33
4G	4d	4B	4.gg
8G	8d	8B	.
4G	4d	4B	4dd
8G	8d	8b	32cc
.	.	.	32b
.	.	.	32a
.	.	.	32g
=34	=34	=34	=34
4G	4e	4b-	8.cc#
.	.	.	16dd
8G	8e	8b-	8cc#
4F#	4d	8b-	8cc#
.	.	8a	8dd
8F#	8d	8a	8cc
=35	=35	=35	=35
4G	4r	24r	4b
.	.	24d	.
.	.	24g	.
.	.	24b	.
.	.	24g	.
.	.	24d	.
8r	8g	24r	8gg
.	.	24d	.
.	.	24b	.
4C	4r	24r	8ee
.	.	24e	.
.	.	24a	.
.	.	24cc	8cc
.	.	24a	.
.	.	24e	.
8r	8c	24r	8a
.	.	24e	.
.	.	24cc	.
=36	=36	=36	=36
4D	4r	24r	4dd
.	.	24d	.
.	.	24g	.
.	.	24b	.
.	.	24g	.
.	.	24d	.
8r	8d	24r	8cc
.	.	24A	.
.	.	24f#	.
4GG	4r	24r	8b
.	.	24G	.
.	.	24B	.
.	.	24d	4r
.	.	24B	.
.	.	24G	.
8r	8g	24r	.
.	.	24B	.
.	.	24g	.
=37	=37	=37	=37
4BB	4r	24r	4dd
.	.	24d	.
.	.	24g	.
.	.	24b	.
.	.	24g	.
.	.	24d	.
8r	8B	24r	8gg
.	.	24d	.
.	.	24b	.
4C	4r	24r	8ee
.	.	24e	.
.	.	24a	.
.	.	24cc	8cc
.	.	24a	.
.	.	24e	.
8r	8c	24r	8a
.	.	24e	.
.	.	24cc	.
=38	=38	=38	=38
4D	4r	24r	4dd
.	.	24d	.
.	.	24g	.
.	.	24b	.
.	.	24g	.
.	.	24d	.
8r	8d	24r	8f#
.	.	24A	.
.	.	24c	.
8G	8g	24r	8g
.	.	24B	.
.	.	24d	.
8r	8r	24g	8r
.	.	24d	.
.	.	24B	.
8D	8A	24r	16cc
.	.	24A	.
.	.	.	16f#
.	.	24c	.
=39	=39	=39	=39
8G	8B	24r	8g
.	.	24B	.
.	.	24d	.
8r	8r	24g	8r
.	.	24d	.
.	.	24B	.
8D	8A	24r	16cc
.	.	24A	.
.	.	.	16f#
.	.	24c	.
8G	8B	24r	8g
.	.	24B	.
.	.	24d	.
8r	8r	24g	24r
.	.	24d	24gg
.	.	24B	24dd
8D	8A	24r	24cc
.	.	24A	24a
.	.	24c	24f#
=40	=40	=40	=40
8G	8B	24r	8g
.	.	24B	.
.	.	24d	.
8GG	8B	24g	8g
.	.	24d	.
.	.	24B	.
8GG	8B	24g	8g
.	.	24d	.
.	.	24B	.
8GG	8B	8g	8g
4r	4r	4r	4r
=41	=41	=41	=41
4D#	4B	4f#	4.bb
8D#	8B	8f#	.
4D#	4B	4b	4ff#
8D#	8B	8b	32ee
.	.	.	32dd#
.	.	.	32cc#
.	.	.	32b
=42	=42	=42	=42
4E	4c#	4a#	8.gg
.	.	.	16aa
8E	8c#	8a#	8gg
8D#	8d#	8b	8ff#
4r	4r	4r	4r
=43	=43	=43	=43
4E	4A#	4c#	8.g
.	.	.	16a
8E	8A#	8c#	8g
8D#	8B	8d#	8f#
4r	4r	4r	4r
=44	=44	=44	=44
4A	4f#	4d#	8.cc
.	.	.	16dd
8A	8f#	8d#	8cc
8G	8g	8e	8b
4r	4r	4r	4r
=45	=45	=45	=45
4B	4g#	4e#	8.dd
.	.	.	16ee
8B	8g#	8e#	8dd
8A#	8a#	8f#	8cc#
4r	4r	4r	4r
=46	=46	=46	=46
4FF#	4r	24r	4.ff#
.	.	24a#	.
.	.	24cc#	.
.	.	24ff#	.
.	.	24cc#	.
.	.	24a#	.
8r	8F#	24r	.
.	.	24a#	.
.	.	24cc#	.
4FF#	4r	24r	4.ee#
.	.	24g#	.
.	.	24b	.
.	.	24dd	.
.	.	24b	.
.	.	24g#	.
8r	8F#	24r	.
.	.	24g#	.
.	.	24b	.
=47	=47	=47	=47
4FF#	4r	24r	4.ee
.	.	24a#	.
.	.	24cc#	.
.	.	24ee	.
.	.	24cc#	.
.	.	24a#	.
8r	8F#	24r	.
.	.	24a#	.
.	.	24cc#	.
4FF#	4r	24r	4.dd#
.	.	24f#	.
.	.	24b	.
.	.	24dd#	.
.	.	24b	.
.	.	24f#	.
8r	8F#	24r	.
.	.	24b	.
.	.	24dd#	.
=48	=48	=48	=48
4FF#	4r	24r	4.dd
.	.	24e#	.
.	.	24g#	.
.	.	24b	.
.	.	24g#	.
.	.	24e#	.
8r	8F#	24r	.
.	.	24e#	.
.	.	24b	.
4FF#	4r	24r	4.cc#
.	.	24e	.
.	.	24a#	.
.	.	24cc#	.
.	.	24a#	.
.	.	24e	.
8r	8F#	24r	.
.	.	24e	.
.	.	24a#	.
=49	=49	=49	=49
4BB	4B	24r	4b
.	.	24d	.
.	.	24f#	.
.	.	24b	.
.	.	24f#	.
.	.	24d	.
8B	8B	24r	8dd
.	.	24f#	.
.	.	24b	.
4E	4e	24r	8.cc#
.	.	24c#	.
.	.	24e	.
.	.	24g	.
.	.	24e	.
.	.	.	16ee
.	.	24c#	.
8F#	8f#	24r	8a#
.	.	24c#	.
.	.	24a#	.
=50	=50	=50	=50
4B	4b	24r	4b
.	.	24d	.
.	.	24f#	.
.	.	24b	.
.	.	24f#	.
.	.	24d	.
8D	8d	24r	8dd
.	.	24f#	.
.	.	24b	.
4E	4e	24r	8.cc#
.	.	24c#	.
.	.	24e	.
.	.	24g	.
.	.	24e	.
.	.	.	16ee
.	.	24c#	.
8F#	8f#	24r	8a#
.	.	24c#	.
.	.	24a#	.
=51	=51	=51	=51
4BB	4r	24r	2.b
.	.	24d	.
.	.	24f#	.
.	.	24b	.
.	.	24f#	.
.	.	24d	.
8r	8B	24r	.
.	.	24d	.
.	.	24b	.
4BB	4r	24r	.
.	.	24d	.
.	.	24f#	.
.	.	24b	.
.	.	24f#	.
.	.	24d	.
8r	8B	24r	.
.	.	24d	.
.	.	24b	.
=52	=52	=52	=52
4AA	4r	24r	[2cc
.	.	24d	.
.	.	24f#	.
.	.	24cc	.
.	.	24f#	.
.	.	24d	.
8r	8A	24r	.
.	.	24f#	.
.	.	24a	.
4A	4r	24r	.
.	.	24d#	.
.	.	24f#	.
.	.	24a	16cc]
.	.	24f#	.
.	.	.	16b
.	.	24d#	.
8D#	8d#	24r	8a
.	.	24B	.
.	.	24f#	.
=53	=53	=53	=53
4E	4e	4e	4.ee
8E	8G	8B	.
4E	4G	4B	4b
8E	8G	8B	32a
.	.	.	32g
.	.	.	32f#
.	.	.	32e
=54	=54	=54	=54
4F#	4A	4B	8.d#
.	.	.	16e
8F#	8A	8B	8d#
8F#	8A	8B	8d#
4r	4r	4r	4r
=55	=55	=55	=55
4D#	4F#	4B	4.ff#
8D#	8F#	8B	.
4D#	4F#	4B	4B
8D#	8F#	8B	16a
.	.	.	32g
.	.	.	32f#
=56	=56	=56	=56
4E	4E	4B	8.g
.	.	.	16a
8E	8e	8g	8b
4E	4e	4g	4.b
8GG	8e	8b 8g	.
=57	=57	=57	=57
16AA	16e	4g 4cc	4..cc
16A	16c	.	.
16c	16e	.	.
16A	16c	.	.
16E	16A	8a	.
16A	16c	.	.
16D	16F#	[4.f#	.
16d	16f#	.	16ff#
4r	4r	.	16aa
.	.	.	16ff#
.	.	.	16cc
.	.	.	16ff#
=58	=58	=58	=58
16r	16r	4f#] 4b	16b
16G	16B	.	16bb
16B	16d	.	16r
16G	16B	.	8.r
16D	16G	8g	.
16G	16B	.	.
16C	16E	[4.e	16r
16c	16e	.	16ee
4r	4r	.	16gg
.	.	.	16ee
.	.	.	16b
.	.	.	16ee
=59	=59	=59	=59
16r	16r	4e] 4a	16a
16F#	16A	.	16aa
16A	16c	.	16r
16F#	16A	.	8.r
16c	16e	8f#	.
16C	16E	.	.
16BB	16D#	4.d#	16r
16B	16d#	.	16dd#
4r	4r	.	16ff#
.	.	.	16dd#
.	.	.	16aa
.	.	.	16a
=60	=60	=60	=60
16r	16r	16g	16g
16E	16e	16e	16gg
16G	16g	16g	16r
16E	16e	16e	8.r
16C	16c	16c	.
16BB	16B	16B	.
8AA#	8A#	8A#	16r
.	.	.	16g
4r	4r	4r	16f#
.	.	.	16e
.	.	.	16d#
.	.	.	16e
=61	=61	=61	=61
8BB	8B	8B	16r
.	.	.	16A#
2r	2r	2r	16B
.	.	.	16d#
.	.	.	16f#
.	.	.	16a#
.	.	.	8b
.	.	.	4r
8r	8r	8r	.
.	.	.	.
=62	=62	=62	=62
4EE	4G	4B	4.ee
8E	8G	8B	.
4E	4G	4B	4b
8E	8G	8B	32a
.	.	.	32g
.	.	.	32f#
.	.	.	32e
=63	=63	=63	=63
4F#	4d#	4B	8.a
.	.	.	16b
8F#	8d#	8B	8a
4D#	4.B	4f#	4a
8E	.	8e	8g
=64	=64	=64	=64
4AA	8.F#	8.d#	[2cc
.	16G	16e	.
8AA	8F#	8d#	.
4AA	8.F#	8.d#	.
.	.	.	16cc]
.	16G	16e	16b
8AA	8A	8f#	8a
=65	=65	=65	=65
4BB	4B	8.e	8.g
.	.	16f#	16a
8BB	8A	8d#	8f#
8E	8G	8e	8e
4r	4r	4r	4r
=66	=66	=66	=66
4E	4G	4B	4.ee
8E	8G	8B	.
4E	4G	4B	4b
8E	8G	8B	32a
.	.	.	32g
.	.	.	32f#
.	.	.	32e
=67	=67	=67	=67
4E	4G	4c#	8.a#
.	.	.	16b
8E	8G	8c#	8a#
4E	4G	4c#	4.a#
8E	8G	8c#	.
=68	=68	=68	=68
4D#	4G	4c#	8.a#
.	.	.	16cc#
8D#	8G	8c#	8a#
4D#	4G	4c#	[4.a#
8D#	[8G	[8c#	.
=69	=69	=69	=69
4D#	8G]	8c#]	8a#]
.	8F#	8B	8b
8D#	8F#	8B	8b
4D#	4F#	4c	4.a
8D#	8F#	8B	.
=70	=70	=70	=70
4E	4r	24r	4g
.	.	24B	.
.	.	24e	.
.	.	24g	.
.	.	24e	.
.	.	24B	.
8r	8e	24r	8ee
.	.	24B	.
.	.	24g	.
4AA	4r	24r	8cc
.	.	24c	.
.	.	24f#	.
.	.	24a	8a
.	.	24f#	.
.	.	24c	.
8r	8A	24r	8f#
.	.	24c	.
.	.	24a	.
=71	=71	=71	=71
4BB	4r	24r	4b
.	.	24B	.
.	.	24e	.
.	.	24g	.
.	.	24e	.
.	.	24B	.
8r	8B	24r	8a
.	.	24d#	.
.	.	24f#	.
4E	4r	24r	8g
.	.	24G	.
.	.	24B	.
.	.	24e	4r
.	.	24B	.
.	.	24G	.
8r	8e	24r	.
.	.	24G	.
.	.	24e	.
=72	=72	=72	=72
4GG	4r	24r	4b
.	.	24B	.
.	.	24e	.
.	.	24g	.
.	.	24e	.
.	.	24B	.
8r	8B	24r	8ee
.	.	24B	.
.	.	24g	.
4AA	4r	24r	8cc
.	.	24c	.
.	.	24f#	.
.	.	24a	8a
.	.	24f#	.
.	.	24c	.
8r	8A	24r	8f#
.	.	24c	.
.	.	24a	.
=73	=73	=73	=73
4BB	4r	24r	4b
.	.	24B	.
.	.	24e	.
.	.	24g	.
.	.	24e	.
.	.	24B	.
8r	8B	24r	8d#
.	.	24d#	.
.	.	24f#	.
8E	8e	24r	8e
.	.	24G	.
.	.	24B	.
8r	8r	24e	8r
.	.	24B	.
.	.	24G	.
8BB	8B	24r	16a
.	.	24A	.
.	.	.	16d#
.	.	24d#	.
=74	=74	=74	=74
8E	8e	24r	8e
.	.	24G	.
.	.	24B	.
8r	8r	24e	8r
.	.	24B	.
.	.	24G	.
8BB	8B	24r	16a
.	.	24A	.
.	.	.	16d#
.	.	24d#	.
8E	8e	24r	8e
.	.	24G	.
.	.	24B	.
8r	8r	24e	24r
.	.	24B	24ee
.	.	24G	24b
8BB	8B	24r	24a
.	.	24A	24f#
.	.	24d#	24d#
=75	=75	=75	=75
8E	8e	24r	8e
.	.	24G	.
.	.	24B	.
8E	8E	24e	8e
.	.	24B	.
.	.	24G	.
8E	8E	24e	8e
.	.	24B	.
.	.	24G	.
8E	8E	8e	8e
4r	4r	4r	4r
==	==	==	==
*-	*-	*-	*-
!!!RWG1: This file contains only pitch and duration data.
!!!RWG2: Transposing instruments are not transposed.
!!!RWG3: Spines may have incompatible meters.
!!!RWG4: Durations of rests and tied notes may be interpreted.
!!!RWG: Key is interpreted using the Humdrum key tool.
!!!GTL: 6 Divertimentos
!!!AFT: stage1
!!!END: 1997/04/15
!!format changes:
!!content changes:
!!public access: complete
!!!KEY: 1358348205
!!!EMD: Converted from MuseData to Humdrum Dec 16, 2000, by Andreas Kornstaedt using muse2kern.
